X:1
T:Title
%%score { ( 1 3 ) | ( 2 4 ) }
L:1/8
M:4/4
K:G
V:1 treble nm="Grand Piano"
V:3 treble 
V:2 bass 
V:4 bass 
V:1
 z4 z2[Q:1/4=100] DG | BB[^DA][DB] G2 E[EG] | z2 CC [B,G]2 [DG]A | Bcde d2 cB | %4
 A6[K:bass][K:treble] z2 | [DB][DB][^DA][DB] G2 E[EG] | z2 CC [B,G]2 [DG]A | Bcde d2 [DGB][CFA] | %8
[M:3/4] G2- [EG-][EG-] [DG]2 |[M:1/4] GG |[M:4/4] z4 [Ec]2 z2 | B6 [DGB]>[DGB] | %12
 [DFA]<[Fd] [Fd]>[Fd] [G^c]2 [Ge]>[Ge] | [Fd]6 [Fc][Fc] | BB[^DA][DB] G2 EG | %15
 z2 z F, [B,G]2 [DG][A,FA] | [GB][Ac][Bd][ce] [Bd]2 [DB][CA] |[M:3/4] [B,G]6 |] %18
V:2
 z4 z2 [G,B,][G,B,] | [G,D][G,D][B,,F,][B,,F,] [E,G,E]2 [C,G,][C,G,] | %2
 [B,,G,]2 [A,,F,][A,,F,] [G,,G,]2 [B,,G,][D,F,D] | %3
 [G,D][G,A,G][G,B,G][G,CG] [G,B,G]2[K:bass] [F,A,D][G,D] | D6 z2 | %5
 [G,,G,][G,,G,][B,,F,][B,,F,] [E,G,E]2 [C,G,][C,G,] | %6
 [B,,G,]2 [A,,F,][A,,F,] [G,,G,]2 [B,,G,][D,F,D] | %7
 [G,D][G,A,G][G,B,G][G,CG] [G,B,G]2[K:bass] D,D, |[M:3/4] z2 CC B,2 |[M:1/4] [G,B,D][G,B,D] | %10
[M:4/4] [C,C]<[C,G,] [C,G,]>[C,G,] .[C,G,]2 [E,G,E]>[F,G,E] | [G,D]6 G,,>G,, | %12
 A,,<[A,,A,] [A,,A,]>[A,,A,] [A,,A,]2 [A,,A,]>[A,,A,] | [D,A,]6 [D,A,][D,A,] | %14
 [G,G][G,D][K:bass][B,,F,][B,,F,] [E,G,E]2 [C,G,][C,E,C] | [B,,G,]3 A,, [G,,G,]2 [B,,D,]D, | %16
 G,G,G,[C,G,] [D,G,]2 [D,F,][D,F,] |[M:3/4] [G,,G,]6 |] %18
V:3
 x8 | x8 | D4 z4 | x8 | z2[K:bass] F,F, F,2[K:treble] [G,DG][DA] | x8 | D4 z4 | x8 | %8
[M:3/4] B,2 z2 z2 |[M:1/4] x2 |[M:4/4] [EG]<[Ec] [Ec]>[Ec] z D, c>c | x8 | x8 | x8 | x8 | D4 z4 | %16
 x8 |[M:3/4] x6 |] %18
V:4
 x8 | x8 | x8 | x6[K:bass] x2 | [D,F,]2 D,D, D,C,B,,[A,,F,] | x8 | x8 | x6[K:bass] x2 | %8
[M:3/4] G,,6 |[M:1/4] x2 |[M:4/4] x8 | x8 | x8 | x8 | x2[K:bass] x6 | x8 | x8 |[M:3/4] x6 |] %18

